lib/preview/nrk-logo-preview-ostfold-title-below-on-light.svg

<svg width="58" height="41" viewBox="0 0 58 41" fill="none" xmlns="http://www.w3.org/2000/svg">
<path d="M0 17.9663V5.96737H4V17.9663H0ZM9.24381 7.87706L11.5081 17.9663H7.19917L4.49549 5.96737H6.91217C7.46635 5.96018 8.00406 6.15553 8.4245 6.51667C8.84562 6.86266 9.08495 7.34298 9.24381 7.87706ZM12 17.9663V5.96737H16V17.9663H12ZM19.0105 10.5304C18.5862 10.5345 18.1687 10.4235 17.8025 10.2092C17.4412 10.0004 17.1411 9.70024 16.9323 9.33888C16.7178 8.97261 16.6068 8.55504 16.611 8.1306C16.6061 7.70874 16.7172 7.29366 16.9323 6.9307C17.1433 6.57327 17.4431 6.27637 17.8025 6.0688C18.1689 5.85478 18.5862 5.74379 19.0105 5.74766C19.4322 5.74312 19.8471 5.85421 20.2102 6.0688C20.566 6.27819 20.8626 6.57484 21.072 6.9307C21.2868 7.29376 21.3979 7.70877 21.3933 8.1306C21.3973 8.555 21.2863 8.9725 21.072 9.33888C20.8649 9.69865 20.5679 9.99856 20.2102 10.2092C19.8471 10.4243 19.4324 10.5354 19.0105 10.5304ZM22 17.9663V5.96737H26V17.9663H22ZM30.9737 12.5245C30.9848 12.5362 31.0693 12.6742 31.2272 12.9385C31.3851 13.2029 31.5906 13.541 31.8439 13.9526C32.0974 14.364 32.3649 14.8005 32.6463 15.2623C32.9278 15.724 33.1926 16.1606 33.4408 16.5721C33.6881 16.9835 33.9697 17.4482 34.2857 17.9663H29.9598C29.6893 17.5269 29.4441 17.1297 29.2245 16.7748C29.0048 16.4199 28.7713 16.0369 28.5238 15.6256C28.2758 15.2148 28.0306 14.8148 27.7882 14.4257C27.5458 14.0367 27.3375 13.6959 27.1633 13.4033C26.9883 13.1106 26.8671 12.9134 26.7997 12.8118C26.6325 12.5597 26.5336 12.2686 26.5127 11.9668C26.5294 11.6772 26.6226 11.3973 26.7828 11.1554C26.8503 11.0427 26.9743 10.8427 27.1545 10.5554C27.3348 10.2681 27.546 9.92733 27.7882 9.533C28.0304 9.13867 28.2756 8.73588 28.5238 8.32465C28.772 7.91342 29.0055 7.52751 29.2245 7.16698C29.4445 6.80683 29.6897 6.40686 29.9598 5.96709H34.2857L30.9396 11.4258C30.8361 11.5878 30.7777 11.7746 30.7706 11.9668C30.7818 12.1686 30.8528 12.3626 30.9737 12.5245Z" fill="#0A2343"/>
<g clip-path="url(#clip0_5919_2832)">
<path d="M11.0553 22.4165L9.74943 23.8314C9.35624 23.5013 8.91139 23.2287 8.41201 23.0192C7.6945 22.7207 6.87655 22.5715 5.95815 22.5715C5.03974 22.5715 4.17874 22.7264 3.44402 23.0364C2.70929 23.3464 2.0865 23.7826 1.57564 24.3451C1.06477 24.9076 0.674453 25.5821 0.404672 26.3685C0.134891 27.1549 0 28.0245 0 28.9773C0 29.9302 0.132021 30.7883 0.396062 31.5517C0.608443 32.163 0.901184 32.6997 1.26568 33.1675L0 34.5566L0.843784 35.3487L2.08937 33.9912C2.47395 34.2955 2.90445 34.548 3.38375 34.7374C4.10125 35.0187 4.91346 35.1593 5.82039 35.1593C6.72731 35.1593 7.56535 35.0101 8.30008 34.7116C9.0348 34.4131 9.65759 33.9884 10.1685 33.4373C10.6793 32.8863 11.0725 32.2262 11.348 31.457C11.6236 30.6878 11.7613 29.8154 11.7613 28.8396C11.7613 27.8638 11.6322 27.0429 11.3739 26.2738C11.1787 25.694 10.9147 25.1774 10.5846 24.7211L11.9335 23.243L11.0553 22.4165ZM2.34193 26.446C2.66337 25.7112 3.12831 25.1344 3.73676 24.7154C4.3452 24.2963 5.08566 24.0868 5.95815 24.0868C6.83063 24.0868 7.50795 24.2849 8.09344 24.6809C8.27138 24.8015 8.4321 24.9421 8.58708 25.0913L2.51126 31.7957C2.35628 31.5259 2.22713 31.2303 2.12668 30.906C1.94874 30.332 1.85977 29.6891 1.85977 28.9773C1.85977 28.0245 2.02049 27.1807 2.34193 26.446ZM9.63463 30.8026C9.45669 31.3881 9.19552 31.8904 8.85112 32.3094C8.50672 32.7284 8.08483 33.0556 7.58544 33.291C7.08606 33.5263 6.50919 33.644 5.85483 33.644C5.20046 33.644 4.6609 33.5349 4.16726 33.3168C3.8286 33.1675 3.53012 32.9695 3.2632 32.7342L9.31319 26.1073C9.35337 26.1905 9.40216 26.2652 9.43947 26.3541C9.74943 27.0716 9.90441 27.9068 9.90441 28.8597C9.90441 29.5714 9.81544 30.22 9.6375 30.8055L9.63463 30.8026ZM19.8806 31.655C19.9782 31.9019 20.0269 32.1975 20.0269 32.5419C20.0269 33.0011 19.9322 33.3971 19.7428 33.7301C19.5534 34.063 19.2922 34.3328 18.9593 34.5394C18.6264 34.746 18.2361 34.8982 17.7883 34.9957C17.3406 35.0933 16.8642 35.1421 16.3591 35.1421C16.141 35.1421 15.9257 35.1364 15.7133 35.1249C15.5009 35.1134 15.2828 35.0847 15.059 35.0388C14.8351 34.9929 14.5998 34.9383 14.3529 34.8752C14.1061 34.8121 13.8335 34.7288 13.535 34.6255L13.4661 33.1618C13.7301 33.2536 13.9913 33.3369 14.2496 33.4115C14.5079 33.4861 14.7605 33.5493 15.0073 33.6009C15.2541 33.6526 15.4895 33.6928 15.7133 33.7215C15.9372 33.7502 16.141 33.7645 16.3246 33.7645C16.669 33.7645 16.9933 33.7301 17.2976 33.6612C17.6018 33.5923 17.8486 33.4746 18.038 33.3082C18.2275 33.1417 18.3222 32.915 18.3222 32.628C18.3222 32.4902 18.2963 32.3639 18.2447 32.2491C18.193 32.1343 18.1184 32.0339 18.0208 31.9478C17.9232 31.8617 17.8056 31.7813 17.6678 31.7067C17.53 31.6321 17.3808 31.5661 17.2201 31.5087C17.1053 31.4742 16.9876 31.4369 16.8671 31.3967C16.7465 31.3566 16.6231 31.3164 16.4968 31.2762C16.3706 31.236 16.2414 31.1958 16.1094 31.1557C15.9774 31.1155 15.8425 31.0724 15.7047 31.0265C15.5669 30.9806 15.4349 30.9347 15.3086 30.8888C15.079 30.7969 14.8638 30.685 14.6629 30.553C14.462 30.4209 14.2869 30.2688 14.1377 30.0966C13.9884 29.9244 13.8679 29.7149 13.7761 29.4681C13.6842 29.2213 13.6383 28.9371 13.6383 28.6157C13.6383 28.168 13.7244 27.7805 13.8966 27.4533C14.0688 27.1262 14.3128 26.8564 14.6285 26.644C14.9442 26.4316 15.3144 26.2709 15.7392 26.1618C16.1639 26.0528 16.6346 25.9982 17.1512 25.9982C17.3578 25.9982 17.5673 26.0069 17.7797 26.0241C17.9921 26.0413 18.2074 26.0729 18.4255 26.1188C18.6436 26.1647 18.8589 26.2221 19.0712 26.291C19.2836 26.3599 19.4989 26.4402 19.717 26.5321L19.5964 27.9269C19.4472 27.858 19.2807 27.7949 19.0971 27.7375C18.9134 27.6801 18.7326 27.6284 18.5546 27.5825C18.3767 27.5366 18.1988 27.4993 18.0208 27.4706C17.8429 27.4419 17.6793 27.4218 17.53 27.4103C17.3808 27.3988 17.243 27.3931 17.1168 27.3931C16.8298 27.3931 16.5743 27.416 16.3505 27.462C16.1266 27.5079 15.9343 27.5768 15.7736 27.6686C15.6129 27.7604 15.4923 27.8724 15.412 28.0044C15.3316 28.1364 15.2914 28.2943 15.2914 28.4779C15.2914 28.6387 15.3287 28.7822 15.4034 28.9084C15.478 29.0347 15.5756 29.1438 15.6961 29.2356C15.8166 29.3275 15.9515 29.4136 16.1008 29.4939C16.2385 29.5628 16.3906 29.6259 16.5571 29.6833C16.7236 29.7407 16.8958 29.7953 17.0737 29.8469C17.2516 29.8986 17.4296 29.956 17.6075 30.0191C17.7855 30.0823 17.9663 30.1425 18.15 30.1999C18.4025 30.2918 18.6436 30.4037 18.8732 30.5357C19.1028 30.6678 19.3037 30.8256 19.4759 31.0093C19.6481 31.193 19.783 31.4082 19.8806 31.655ZM26.8978 33.532C26.9781 33.5148 27.047 33.4947 27.1044 33.4718L27.0011 34.901C26.9092 34.924 26.7973 34.9498 26.6653 34.9785C26.5333 35.0072 26.3926 35.033 26.2434 35.056C26.0942 35.079 25.9306 35.0962 25.7526 35.1077C25.5747 35.1191 25.3939 35.1249 25.2102 35.1249C24.9691 35.1249 24.7223 35.1019 24.4697 35.056C24.2172 35.0101 23.979 34.9355 23.7551 34.8321C23.5312 34.7288 23.3361 34.5853 23.1696 34.4016C23.0032 34.218 22.8683 33.9855 22.7649 33.7042C22.6616 33.423 22.61 33.0872 22.61 32.6969V27.5653H21.0946L21.284 26.1877H22.61V24.0868L24.3664 23.4669V26.1877H26.9839L26.7944 27.5653H24.3664V32.3352C24.3664 32.6222 24.4238 32.8662 24.5386 33.0671C24.6534 33.268 24.817 33.4201 25.0294 33.5234C25.2418 33.6267 25.4972 33.6784 25.7957 33.6784C25.876 33.6784 25.9621 33.6784 26.054 33.6698C26.1458 33.6641 26.2405 33.6526 26.3381 33.6354C26.4357 33.6181 26.5333 33.6009 26.6308 33.5837C26.7284 33.5665 26.8174 33.5493 26.8978 33.532ZM33.9408 22.2443L34.0097 23.6735C33.9293 23.6391 33.8346 23.6104 33.7255 23.5874C33.6165 23.5645 33.5017 23.5415 33.3811 23.5186C33.2606 23.4956 33.1372 23.4784 33.0109 23.4669C32.8846 23.4554 32.7526 23.4497 32.6148 23.4497C32.3967 23.4497 32.1987 23.4755 32.0207 23.5272C31.8428 23.5788 31.6964 23.6592 31.5816 23.7682C31.4668 23.8773 31.3778 24.0151 31.3147 24.1815C31.2516 24.348 31.22 24.5403 31.22 24.7584V26.1877H33.6308V27.5308H31.22V34.9699H29.4636V27.5308H28.172V26.1877H29.4636V24.9478C29.4636 24.4427 29.5353 24.0065 29.6788 23.6391C29.8223 23.2717 30.0232 22.9646 30.2815 22.7178C30.5398 22.471 30.8412 22.2902 31.1856 22.1754C31.53 22.0606 31.8973 22.0032 32.2876 22.0032C32.4943 22.0032 32.6894 22.0118 32.8731 22.029C33.0568 22.0462 33.2376 22.0721 33.4156 22.1065C33.5935 22.141 33.7686 22.1869 33.9408 22.2443ZM41.2163 26.5493C40.5562 26.1819 39.7784 25.9982 38.8829 25.9982C37.9875 25.9982 37.204 26.1877 36.5324 26.5665C35.8608 26.9454 35.3385 27.4792 34.9654 28.168C34.5923 28.8568 34.4057 29.6719 34.4057 30.6132C34.4057 31.5546 34.5808 32.3668 34.9309 33.0499C35.2811 33.7329 35.7833 34.2524 36.4377 34.6083C37.092 34.9642 37.8497 35.1421 38.7107 35.1421C39.5717 35.1421 40.3983 34.9527 41.0871 34.5738C41.7759 34.195 42.3126 33.6554 42.6972 32.9552C43.0818 32.2549 43.2741 31.4283 43.2741 30.4755C43.2741 29.5226 43.0961 28.7793 42.7402 28.1077C42.3843 27.4361 41.8764 26.9167 41.2163 26.5493ZM41.1129 32.318C40.8891 32.8002 40.5762 33.1589 40.1744 33.3943C39.7726 33.6296 39.3134 33.7473 38.7968 33.7473C38.2802 33.7473 37.8325 33.6267 37.4537 33.3857C37.0748 33.1446 36.7763 32.783 36.5582 32.3008C36.3401 31.8186 36.231 31.2217 36.231 30.5099C36.231 29.7981 36.3401 29.2299 36.5582 28.7707C36.7763 28.3115 37.0834 27.9671 37.4795 27.7375C37.8756 27.5079 38.3491 27.3931 38.9002 27.3931C39.3364 27.3931 39.7124 27.4648 40.0281 27.6083C40.3438 27.7518 40.6078 27.9613 40.8202 28.2369C41.0326 28.5124 41.1904 28.8424 41.2937 29.227C41.3971 29.6116 41.4487 30.0392 41.4487 30.5099C41.4487 31.2332 41.3368 31.8359 41.1129 32.318ZM48.3023 33.6784L48.509 33.644L48.3368 35.0043C48.2564 35.0273 48.1559 35.0503 48.0354 35.0732C47.9149 35.0962 47.7915 35.1134 47.6652 35.1249C47.5389 35.1364 47.4069 35.1421 47.2691 35.1421C46.9936 35.1421 46.7382 35.1105 46.5028 35.0474C46.2675 34.9843 46.0637 34.8781 45.8915 34.7288C45.7193 34.5796 45.5873 34.3873 45.4954 34.152C45.4036 33.9166 45.3577 33.6325 45.3577 33.2996V22.2271L47.1141 21.9688V32.5247C47.1141 32.7313 47.1285 32.9092 47.1572 33.0585C47.1859 33.2077 47.2347 33.3311 47.3036 33.4287C47.3724 33.5263 47.4585 33.598 47.5619 33.644C47.6652 33.6899 47.7915 33.7128 47.9407 33.7128C48.0096 33.7128 48.0698 33.7128 48.1215 33.7042C48.1732 33.6985 48.2334 33.6899 48.3023 33.6784ZM56.2063 22.2271V26.4173C56.1891 26.4115 56.1719 26.4029 56.1547 26.3943C55.8562 26.2795 55.5261 26.1848 55.1645 26.1102C54.8029 26.0356 54.404 25.9982 53.9677 25.9982C53.1986 25.9982 52.4839 26.1877 51.8238 26.5665C51.1637 26.9454 50.6328 27.4935 50.231 28.211C49.8292 28.9285 49.6283 29.8039 49.6283 30.8371C49.6283 31.7211 49.7804 32.4845 50.0846 33.1274C50.3888 33.7702 50.8251 34.2668 51.3933 34.6169C51.9616 34.967 52.6418 35.1421 53.4339 35.1421C53.8931 35.1421 54.3265 35.0847 54.734 34.9699C55.1416 34.8551 55.5405 34.6772 55.9308 34.4361C56.06 34.3557 56.1891 34.2668 56.3183 34.1749L56.5335 34.9699H57.9628V21.986L56.2063 22.2271ZM55.2851 33.4976C54.8316 33.6641 54.4212 33.7473 54.0538 33.7473C53.5028 33.7473 53.0321 33.6354 52.6418 33.4115C52.2515 33.1876 51.953 32.8432 51.7463 32.3783C51.5397 31.9133 51.4364 31.3307 51.4364 30.6304C51.4364 29.9302 51.5512 29.3246 51.7808 28.8482C52.0104 28.3717 52.3404 28.0101 52.7709 27.7633C53.2014 27.5165 53.7152 27.3931 54.3121 27.3931C54.5991 27.3931 54.8746 27.4132 55.1387 27.4533C55.4027 27.4935 55.6696 27.5567 55.9394 27.6428C56.0227 27.6686 56.1174 27.7059 56.2063 27.7375V33.0441C55.882 33.2364 55.5749 33.3914 55.2851 33.4976Z" fill="#1767CE"/>
</g>
<defs>
<clipPath id="clip0_5919_2832">
<rect width="57.9628" height="13.38" fill="white" transform="translate(0 21.9688)"/>
</clipPath>
</defs>
</svg>

<svg xmlns="http://www.w3.org/2000/svg" viewBox="0 0 58 41"><path fill="#0A2343" d="M0 17.966V5.967h4v12H0ZM9.244 7.877l2.264 10.09H7.2l-2.704-12h2.417a2.276 2.276 0 0 1 1.513.55c.42.346.66.826.819 1.36ZM12 17.967v-12h4v12h-4Zm7.01-7.437a2.381 2.381 0 0 1-2.078-1.192 2.345 2.345 0 0 1-.321-1.207 2.301 2.301 0 0 1 .321-1.2 2.41 2.41 0 0 1 3.278-.862c.356.21.653.506.862.862.215.363.326.778.321 1.2a2.35 2.35 0 0 1-.321 1.208 2.4 2.4 0 0 1-.862.87 2.3 2.3 0 0 1-1.2.321ZM22 17.966V5.967h4v12h-4Zm8.974-5.442c.01.012.095.15.253.415.158.264.364.602.617 1.014a309.436 309.436 0 0 1 1.597 2.62c.247.41.529.875.845 1.393H29.96c-.27-.44-.516-.836-.736-1.191-.22-.355-.453-.738-.7-1.15-.248-.41-.493-.81-.736-1.2a60.12 60.12 0 0 1-.625-1.022 18.04 18.04 0 0 0-.363-.591 1.747 1.747 0 0 1-.287-.845c.016-.29.11-.57.27-.812.067-.112.191-.312.371-.6a182.106 182.106 0 0 0 1.37-2.23l.7-1.158.736-1.2h4.326l-3.346 5.459a1.079 1.079 0 0 0-.17.54c.012.203.083.397.204.559Z"/><g clip-path="url(#a)"><path fill="#1767CE" d="M11.055 22.416 9.75 23.831a5.188 5.188 0 0 0-1.337-.812c-.718-.298-1.535-.447-2.454-.447-.918 0-1.78.154-2.514.464a5.236 5.236 0 0 0-1.868 1.31 5.736 5.736 0 0 0-1.171 2.023C.135 27.155 0 28.024 0 28.977c0 .953.132 1.811.396 2.575.212.611.505 1.148.87 1.615L0 34.557l.844.792 1.245-1.358c.385.304.815.557 1.295.746.717.282 1.53.422 2.436.422.907 0 1.745-.149 2.48-.447a5.154 5.154 0 0 0 1.868-1.275 5.7 5.7 0 0 0 1.18-1.98c.276-.77.413-1.642.413-2.617 0-.976-.129-1.797-.387-2.566a5.77 5.77 0 0 0-.79-1.553l1.35-1.478-.879-.826Zm-8.713 4.03c.321-.735.786-1.312 1.395-1.73.608-.42 1.349-.63 2.221-.63.873 0 1.55.199 2.135.595.178.12.34.261.494.41l-6.076 6.705a4.38 4.38 0 0 1-.384-.89 6.5 6.5 0 0 1-.267-1.929c0-.953.16-1.796.482-2.531Zm7.293 4.357a4.32 4.32 0 0 1-.784 1.506 3.607 3.607 0 0 1-1.266.982c-.499.235-1.076.353-1.73.353-.655 0-1.194-.11-1.688-.327a3.49 3.49 0 0 1-.904-.583l6.05-6.627c.04.084.09.158.126.247.31.718.465 1.553.465 2.506 0 .711-.089 1.36-.267 1.945l-.002-.002Zm10.246.852c.097.247.146.542.146.887 0 .46-.095.855-.284 1.188a2.25 2.25 0 0 1-.784.81 3.693 3.693 0 0 1-1.17.456 6.699 6.699 0 0 1-1.43.146c-.218 0-.433-.006-.646-.017a4.455 4.455 0 0 1-.654-.086c-.224-.046-.46-.1-.706-.164-.247-.063-.52-.146-.818-.25l-.069-1.463c.264.092.525.175.784.25.258.074.51.137.757.189.247.052.482.092.706.12a4.398 4.398 0 0 0 1.584-.06c.305-.069.552-.186.741-.353.19-.166.284-.393.284-.68a.88.88 0 0 0-.301-.68 1.895 1.895 0 0 0-.353-.241 3.2 3.2 0 0 0-.448-.198 12.323 12.323 0 0 1-.353-.112 30.288 30.288 0 0 0-.758-.241 16.407 16.407 0 0 1-.8-.267 3.626 3.626 0 0 1-.646-.336 2.526 2.526 0 0 1-.525-.456 2.027 2.027 0 0 1-.362-.629 2.435 2.435 0 0 1-.138-.852c0-.448.086-.835.259-1.163.172-.327.416-.597.732-.809a3.558 3.558 0 0 1 1.11-.482 5.68 5.68 0 0 1 1.412-.164c.207 0 .416.009.629.026.212.017.427.049.645.095.219.046.434.103.646.172.213.069.428.15.646.241l-.12 1.395a4.14 4.14 0 0 0-.5-.19 11.18 11.18 0 0 0-.542-.154 5.886 5.886 0 0 0-1.438-.19 3.83 3.83 0 0 0-.767.069 1.946 1.946 0 0 0-.576.207.978.978 0 0 0-.362.335.893.893 0 0 0-.12.474c0 .16.037.304.111.43.075.127.173.236.293.328.12.091.255.178.405.258.137.069.29.132.456.19.167.057.339.111.517.163.178.052.356.109.534.172.177.063.358.123.542.18.253.093.494.205.723.337.23.132.43.29.603.473.172.184.307.4.405.646Zm7.017 1.877c.08-.017.149-.037.206-.06l-.103 1.429c-.092.023-.204.049-.336.077a5.61 5.61 0 0 1-.913.13 8.48 8.48 0 0 1-.542.017c-.24 0-.488-.023-.74-.069a2.959 2.959 0 0 1-.715-.224 1.8 1.8 0 0 1-.585-.43 2.108 2.108 0 0 1-.405-.698 2.926 2.926 0 0 1-.155-1.007v-5.132h-1.515l.189-1.377h1.326v-2.101l1.756-.62v2.72h2.618l-.19 1.378h-2.428v4.77c0 .287.058.531.173.732.114.201.278.353.49.456.213.104.468.155.767.155.08 0 .166 0 .258-.008.092-.006.187-.017.284-.035l.293-.051c.097-.018.186-.035.267-.052Zm7.043-11.288.069 1.43a1.526 1.526 0 0 0-.285-.087 18.083 18.083 0 0 0-.344-.068 3.822 3.822 0 0 0-.766-.07c-.218 0-.416.026-.594.078a1.05 1.05 0 0 0-.44.241c-.114.11-.203.247-.266.413a1.622 1.622 0 0 0-.095.577v1.43h2.41v1.343h-2.41v7.439h-1.756v-7.44h-1.292v-1.342h1.292v-1.24c0-.505.071-.942.215-1.309.143-.367.344-.674.603-.921.258-.247.56-.428.904-.543a3.463 3.463 0 0 1 1.102-.172 5.617 5.617 0 0 1 1.128.103c.178.035.353.08.525.138Zm7.275 4.305c-.66-.367-1.438-.55-2.333-.55-.896 0-1.679.189-2.35.568a3.971 3.971 0 0 0-1.568 1.601c-.373.689-.56 1.504-.56 2.445 0 .942.176 1.754.526 2.437.35.683.852 1.202 1.507 1.558.654.356 1.412.534 2.273.534.86 0 1.687-.19 2.376-.568a4.01 4.01 0 0 0 1.61-1.619c.385-.7.577-1.527.577-2.48 0-.952-.178-1.696-.534-2.367a3.762 3.762 0 0 0-1.524-1.559Zm-.103 5.769c-.224.482-.537.84-.939 1.076a2.675 2.675 0 0 1-1.377.353c-.517 0-.964-.12-1.343-.361-.38-.241-.678-.603-.896-1.085-.218-.482-.327-1.08-.327-1.791 0-.712.11-1.28.327-1.74.218-.459.525-.803.922-1.032.396-.23.87-.345 1.42-.345.436 0 .812.072 1.128.215.316.144.58.353.792.629.213.275.37.605.474.99.103.385.155.812.155 1.283 0 .723-.112 1.326-.336 1.808Zm7.19 1.36.206-.034-.172 1.36a3.822 3.822 0 0 1-1.068.138c-.275 0-.53-.031-.766-.095a1.52 1.52 0 0 1-.611-.318 1.44 1.44 0 0 1-.397-.577 2.349 2.349 0 0 1-.137-.852V22.227l1.756-.258v10.556c0 .206.015.384.043.534.029.149.078.272.147.37.068.097.154.169.258.215.103.046.23.069.379.069.069 0 .129 0 .18-.009a3.34 3.34 0 0 0 .181-.026Zm7.903-11.45v4.19c-.017-.006-.034-.015-.051-.024a5.934 5.934 0 0 0-2.187-.396c-.77 0-1.484.19-2.144.569-.66.378-1.191.927-1.593 1.644-.402.718-.603 1.593-.603 2.626 0 .884.152 1.647.457 2.29a3.42 3.42 0 0 0 1.308 1.49c.569.35 1.249.525 2.04.525.46 0 .894-.057 1.301-.172a4.698 4.698 0 0 0 1.197-.534c.129-.08.258-.17.387-.261l.215.795h1.43V21.986l-1.757.241Zm-.92 11.27c-.454.166-.865.25-1.232.25-.551 0-1.022-.113-1.412-.337-.39-.223-.689-.568-.896-1.033-.206-.465-.31-1.047-.31-1.748 0-.7.115-1.305.345-1.782.23-.476.56-.838.99-1.085.43-.247.944-.37 1.541-.37a5.215 5.215 0 0 1 1.627.25c.084.026.178.063.267.095v5.306a5.665 5.665 0 0 1-.92.454Z"/></g><defs><clipPath id="a"><path fill="#fff" d="M0 21.969h57.963v13.38H0z"/></clipPath></defs></svg>
